icons/label-check.svg

<svg xmlns="http://www.w3.org/2000/svg" width="24" height="24" viewBox="0 0 24 24">
  <path d="M15.0924635,4 C15.6691887,4 16.2178408,4.24896086 16.5976169,4.68299078 L21.8476169,10.6829908 C22.5074124,11.4370428 22.5074124,12.5629572 21.8476169,13.3170092 L16.5976169,19.3170092 C16.2178408,19.7510391 15.6691887,20 15.0924635,20 L4,20 C2.8954305,20 2,19.1045695 2,18 L2,6 C2,4.8954305 2.8954305,4 4,4 L15.0924635,4 Z M13.1616337,9.25016214 C12.7475097,8.8847586 12.1155778,8.92425435 11.7501742,9.33837836 L11.7501742,9.33837836 L8.97001207,12.488 L8.24984993,11.6717117 L8.16101521,11.5828086 C7.78851489,11.2539073 7.22065875,11.2461999 6.83839043,11.5834955 C6.42426642,11.948899 6.38477067,12.580831 6.75017421,12.994955 L6.75017421,12.994955 L8.22076245,14.6616216 L8.3105198,14.7513955 C8.71779524,15.1104909 9.35078113,15.0805663 9.72043816,14.6616216 L9.72043816,14.6616216 L13.2498499,10.6616216 L13.327,10.5624086 C13.6069605,10.1518544 13.543902,9.58745772 13.1616337,9.25016214 Z"/>
</svg>

<svg xmlns="http://www.w3.org/2000/svg" viewBox="0 0 24 24">
  <path d="M15.1 4a2 2 0 0 1 1.5.68l5.25 6a2 2 0 0 1 0 2.64l-5.25 6a2 2 0 0 1-1.5.68H4a2 2 0 0 1-2-2V6c0-1.1.9-2 2-2h11.1zm-1.94 5.25a1 1 0 0 0-1.41.09l-2.78 3.15-.72-.82-.09-.09A1 1 0 0 0 6.75 13l1.47 1.67.1.1a1 1 0 0 0 1.4-.1l3.53-4 .08-.1a1 1 0 0 0-.17-1.31z"/>
</svg>
